!!!OTL: Der verwundete Knabe (21b), S. 88
!!!id: T0138
**kern
*clefG2
*k[]
*G:
{4d
=1
4b
4a
4a
=2
4g
4d}
=3
{8ee
8ee
=4
4.dd
8b
8b
8dd
=5
4a}
4r
=6
{8dd
8dd
=7
8dd
8dd
4.dd
8cc
=8
4.b
8cc
4dd}
=9
{8ee
8dd
8cc
8b
8cc
8b
=10
4.a
8b
4cc}
=11
{8cc
8ee
4dd
8dd
8cc
=12
4b}
4r
==
*-
!!!minrhy: 8
!!!meters: 3/4 ]  ZZ[5
!!!cut: Der verwundete Knabe (21b), S. 88
!!!reg: Luxemburg
!!!trd: Singendes Volk, Esch-Alzette 1937 posth.
!!!rhy1: X_  X_X_X_  X_X_
!!!rhy2: XX  X_.XXX  X_0_
!!!key: T0138  08  G 3/4 ]  ZZ[5
!!!mod: SECHSTONSKALA DUR ?]  AMBITUS[9
!!!kad: -52543
!!!akz: 31_52_53_62_43_
!!!fot: 'a__b__c__d__e__
!!!for: 'a__b__c__d__e__
!!!fok: '^__\__V__Vd_^d_
!! PHRAS[GEMISCHTTAKTIG]
!!!fkt: Liebeslieder
!!!bem: Blascheid, fff Hitting, 1901
!! THILL, Mathias:
!! PR[28] 2K[6] 2G[8] 3K[3] 3G[3] 4A[3] 4Ü[0] 5A[0] 6K[0] 6G[3]
!! 7K[0] 7G[0] 8A[0] MEHR[3] SI[28] ABS[36] SR[14] SP[14]
!! ST[13] 2k[11] 2g[28] 3k[0] 3g[0] 4d[6] 4ü[0] 5d[0] 6k[0] 6g[0]
!! 7k[0] 7g[0] 8d[0] mehr[0] si[44] dm[-16] sr[39] sp[6]
!! 1F[61] 2F[32] 3F[0] 4F[0] LF[0] 2P[8] 3P[0] 4P[0] TRI[0] DF[3] AB[38]
!! TF[0] U3K[0] U3[0] U4[0] U4Ü[0] U5[5] U6K[0] U6[0] U7K[0] U7[0]
!! N1[3] N2K[0] N2[11] N3K[0] N3[16] N4[19] N4Ü[0] N5[32] N6K[0] N6[14]
!!!n7k: 0] N7[0] O1[0] O2K[0] O2[0] O3K[0] O3[0] HÖ[0
